X: 154
T: Bunny Hat
T: The bunny hat
M: 4/4
L: 1/8
C: Mike McGoldrick
R: reel
K: B minor
FABF cBAF | BcdB fedB | FABF A3 F EF (3FFF AB B2 |
AFBF cBAF | BcdB fedB | FABd cA (3AAA | fcec B4 :||
FABd ef (3fff | ef (3eee edcA | FABd ef (3fff | edcA B4 |
FABd ef (3fff | af (3fff bafe | dB (3BBB cA (3AAA | fcec B4 :||
